src/24/actions/im-facebook.svg

<svg xmlns="http://www.w3.org/2000/svg" viewBox="0 0 24 24">
  <defs id="defs3051">
    <style type="text/css" id="current-color-scheme">
      .ColorScheme-Text {
        color:#5d656b;
      }
      </style>
  </defs>
 <path style="fill:currentColor;fill-opacity:1;stroke:none" 
     d="M 17.65625 4 C 14.860304 4 13.876953 5.415375 13.876953 7.796875 L 13.876953 9.4121094 L 12 9.4121094 L 12 12.470703 L 13.876953 12.470703 L 13.876953 20 L 17.363281 20 L 17.363281 12.470703 L 19.691406 12.470703 L 20 9.4121094 L 17.363281 9.4121094 L 17.369141 8.0898438 C 17.369141 7.3282437 17.440711 6.9199219 18.529297 6.9199219 L 19.984375 6.9199219 L 19.984375 4 L 17.65625 4 z "
     class="ColorScheme-Text"
     />
</svg>

<svg xmlns="http://www.w3.org/2000/svg" viewBox="0 0 24 24"><path d="M17.656 4c-2.796 0-3.779 1.415-3.779 3.797v1.615H12v3.059h1.877V20h3.486v-7.53h2.328L20 9.413h-2.637l.006-1.322c0-.762.072-1.17 1.16-1.17h1.455V4h-2.328z" fill="currentColor" color="#5d656b"/></svg>
